X: 48
T: May Day Morn
R: jig
M: 6/8
L: 1/8
Z: 2011 John Chambers <jc:trillian.mit.edu>
B: Charles & Samuel Thompson eds "Twenty Four Country Dances", London 1774, p.24 #2
K: G
% - - - - - - - - - - - - - - - - - - - - - - - - -
|: dBG  g2d | BGB A2c  | BGd g2c | BdD G>GG :|
|: fdf Ta2g | fdA e^cA | fdf g2c | BcA G>GG :|
|: B2D  c2D | DFA cBA  | B2D d2g | BdD G>GG :|
% - - - - - - - - Dance description - - - - - - - -
%%begintext align
%% The first Man sets and turns the 2d Wo: .|. the first Wo:
%% set and turns the 2d Man :|. cross over one Cu: and lead
%% up cast back and turn .|: :|: set and back to back
%% foot it right hands and left .|:. :|:.
%%endtext
